X: 2
T:Haud 'er Guan
M:4/4
L:1/8
C:Bert Murray
R:R
K:A
E|"A"E2 CE cBAG|"D"F2 DF dcBA|"A"AAGG "E"FEFG|"A"AGAc "E"E2EF|!
"A"E2 CE cBAG|"D"F2 DF dcBA|"A"ABAG "E"FEFG|"A"AE"E"cB "A"A2:|!
|:ce|"A"e2ce Acec|"D"f2df Adfd|"A"eAce aece|"Bm"fedc "E"B2cd|!
"A"e2ce Acea|"D"f2df afdf|"A"eagf edcB|"A"AE"E"cB "A"A2:||
